public/assets/trusts-llama/cftc.svg

<svg fill="none" height="49" viewBox="0 0 65 49" width="65" xmlns="http://www.w3.org/2000/svg"><g fill="#fff"><path d="m.717773 26.0401v-25.535705h30.717527l.1243.124362v25.287043l-.1243.1243zm6.646747-21.32148-.80089-1.4766-.72627 1.46914-1.63661.27028c-.17162.1484 1.11594 1.00567 1.14496 1.21958l-.23297 1.68055 1.53297-.79924 1.5338.71716-.31173-1.60676c.03233-.16582 1.28673-1.16818 1.14081-1.2942zm12.42128-1.47825c-.1931-.04229-.1326.02653-.184.10612-.2604.40293-.3648.94681-.6484 1.33979l-1.6532.29516c-.0315.13845.0448.1683.1252.24706.3333.32335.7719.61435 1.072.99241l-.286 1.66149 1.5338-.79924 1.533.71716-.2322-1.68221 1.1442-1.21875-1.7287-.17991-.6773-1.47908zm-6.5497 4.72576c-.1393-.02901-.1683.03648-.2363.13514-.1285.18655-.5074 1.27596-.6077 1.34063l-1.6424.26531 1.1458 1.21959-.233 1.6814 1.5479-.8134 1.5189.7305-.2977-1.6201c.0813-.1998 1.2511-1.14245 1.1276-1.2809l-1.5761-.20727-.7462-1.45173zm13.1824 0c-.194-.04311-.1327.02819-.1841.10695-.1815.27692-.4377 1.19886-.6467 1.34063l-1.6548.29432 1.2237 1.21047-.228 1.6905 1.4642-.81 1.6026.7263-.3184-1.6798 1.1475-1.22037-1.6598-.20645-.7462-1.45172zm-20.22961 5.14027c-.19318-.0422-.13266.0266-.18406.1062-.16665.2578-.51237 1.237-.64668 1.3406l-1.65485.2943 1.14413 1.2188-.1484 1.6822 1.44923-.8001 1.5338.7172-.23297-1.6814 1.14579-1.2196-1.65816-.2081zm13.59691 0c-.1931-.0422-.1326.0266-.184.1062-.1667.2578-.5124 1.237-.6467 1.3406l-1.6549.2943c-.0522.194.0506.1401.1062.189.3789.3367.7412.684 1.0919 1.0497l-.2861 1.6614 1.533-.7992 1.5338.7172-.233-1.6814 1.1458-1.2196-1.659-.2073-.747-1.4517zm-4.9736 6.7993-1.6565-.2089-.8291-1.4492-.6973 1.5006-1.6241.2413c-.17333.1467 1.0968 1.0513 1.1433 1.2196l-.2314 1.6813 1.5338-.7395 1.533.7404-.3109-1.6905c.0323-.165 1.2876-1.169 1.1408-1.2942zm13.514 0-1.6565-.2089-.8291-1.4492-.6972 1.5006-1.6242.2413c-.1741.1467 1.0944 1.0479 1.145 1.2204l-.233 1.6805 1.5338-.7395 1.533.7404-.3126-1.6897c.0323-.1642 1.2884-1.1698 1.1416-1.295z"/><path d="m16.8792 41.47c.1144.1667-.8937 1.1259-1.0703 1.2776-3.769 3.2194-10.75239 2.7087-13.74952-1.3414-2.546938-3.4415-2.1382012-8.6208 1.10268-11.4712 3.70019-3.2533 10.69514-3.0717 13.71714 1.0272l-3.4349 3.1191c-1.188-1.6607-3.3942-2.4417-5.32101-1.5886-2.93412 1.2992-2.87609 6.4876.19898 7.6234 2.00883.7421 3.82783-.0713 5.12123-1.6357l3.4341 2.9896z"/><path d="m61.1595 34.0822c-1.9707-3.0618-6.9154-2.4251-7.3573 1.4741-.5413 4.7722 4.5575 6.5149 7.354 2.959h.17l3.3959 3.0709c-1.4924 1.9185-3.7044 2.9267-6.0929 3.1911-5.8484.6484-10.861-3.1878-10.4034-9.3255.6053-8.1109 11.7722-10.3793 16.4897-4.4778l-3.5551 3.1082z"/><path d="m24.0149 32.2581v2.6945l.1244.1244h6.757v4.1454h-6.8814v5.2232h-5.4719v-16.4158h13.2238l.1244.1243v3.9796l-.1244.1244z"/><path d="m47.6438 28.0298v4.3112h-4.8087v12.1046h-5.4719v-12.1046h-4.8087v-4.1039c0-.0291-.1468-.0921.0414-.2073z"/><path d="m64.5572 4.56689h-3.9796v21.39031h3.9796z"/><path d="m50.9602 25.9571h-3.8967v-17.65949h3.7723l.1244.12436z"/><path d="m53.8618 25.9571v-14.1773h3.8552l.1244.1243v13.9286l-.1244.1244z"/><path d="m44.2448 13.521h-3.8967v12.4362h3.8967z"/><path d="m37.7779 19.4902c.0415.0299-.0829.107-.0829.1244v6.3425h-3.8967v-6.4669z"/><path d="m62.1528.67086-6.1767 9.61484-6.9618-6.79679-5.8832 8.21369-3.0278.1227-4.8899 3.9c-.4187.01-.2404-.1898-.0448-.378 1.4086-1.3572 3.3785-2.5221 4.851-3.8544l2.964-.063 5.9055-8.43761 7.1276 6.79764 5.8567-9.19203z"/><path d="m8.34521 46.7671c.15587-.0348.16085.0523.23463.1385.10779.1244.68234 1.2403.75861 1.1881l.6583-1.2752.25535-.0514v1.824h-.1658v-1.4094c-.21806-.044-.12935.0448-.17412.1194-.08623.1434-.53807 1.038-.61352 1.0396l-.78763-1.159v1.4094h-.16582z"/><path d="m50.3799 46.767c.1683-.194.8539 1.1798.9128 1.3266.1476.0994.6517-1.4037.9941-1.3266v1.824h-.1658v-1.4094l-.7877 1.159-.7876-1.159v1.4094h-.1658z"/><path d="m52.867 46.7672c.0979.0091.1783-.0456.2546.0522.2222.2835.5007.9253.6583 1.2743.1011.0763.6781-1.0836.7594-1.1872.0721-.0929.0821-.1717.2346-.1385v1.824h-.1658v-1.2851c0-.034.2139-.1451-.0406-.1235l-.6177 1.1084-.1699.0515c-.17-.3325-.3632-.7429-.5622-1.053-.053-.0829.0092-.1467-.1857-.1069v1.4094c-.0539.0066-.1658-.1103-.1658-.1244v-1.6996z"/><path d="m5.85792 46.8914c-.00331-.0232-.12519-.0937-.0829-.1235.07627.0058.16333-.0241.23463.0166.07876.0456.70637 1.4102.84234 1.3091.03483-.1915.61021-1.2702.67819-1.3091.06799-.039.15836-.0108.23463-.0166.04146.029-.0829.1061-.0829.1235v1.6996l-.16914-.2868-.03731-1.1226-.66492 1.1615c-.16582.0382-.11441-.0729-.17245-.1567-.18406-.2661-.31256-.5687-.49247-.8398-.06301-.0954.02072-.2148-.20479-.1642.09369.3681.22551 1.1342-.08291 1.4086-.05223-.5331.07048-1.1831 0-1.6996z"/><path d="m41.4258 46.767c.1476-.0216.1816-.005.2868.0862.2828.2446.6426.8913.9336 1.2171.0489.0556-.0066.1584.1899.1061v-1.285c0-.0175-.1244-.0946-.083-.1236h.2488v1.6988l-.1658.0837-1.2437-1.4517v1.4924h-.1658v-1.824z"/><path d="m17.4237 46.7671.7039.9949c.0266-.1402.6169-1.2163.7462-1.0779-.2288.6617-.9004 1.1409-.7462 1.9061-.2951.0489-.1243-.4875-.2031-.7495-.0157-.0539-.5082-.9476-.5563-.9775-.092-.058-.7304-.0572-.8158.1111v1.6167h-.1658v-1.741h-.6625v-.0829z"/><path d="m48.2523 48.3141c-.9111-.9319.6873-2.2684 1.4659-1.2586.7785 1.0098-.6749 2.0686-1.4659 1.2586zm.1642-.0813c.7686.7014 1.8522-.5049 1.0571-1.1806-.8192-.6956-1.7287.5671-1.0571 1.1806z"/><path d="m63.8109 48.1766v-1.4095h.1658v1.824c-.165.0415-.16-.0688-.2329-.1401-.4022-.3921-.6733-.97-1.0936-1.3522v1.4923h-.1658v-1.824c.1343-.029.1691.0456.2512.1219.3739.3466.65.9667 1.0753 1.2876z"/><path d="m13.0713 46.7671c.6832-.0622 1.746-.0672 1.7419.8705-.0042.9377-1.0322 1.0181-1.7419.9534zm.1658 1.6581c.4311.0075 1.004.0738 1.2619-.354.4908-.8158-.5597-1.5214-1.2619-1.0969z"/><path d="m10.9439 48.3141c-.96426-.965.7088-2.2302 1.4658-1.2585.7279.9352-.6218 2.1026-1.4658 1.2585zm.616-1.4492c-.854.1045-.9593 1.3738-.0846 1.5421 1.2287.2371 1.2395-1.6839.0846-1.5421z"/><path d="m4.33658 46.714c1.32736-.0639 1.3912 1.8463.06715 1.8812-1.2287.0323-1.29254-1.8224-.06715-1.8812zm.00829.1534c-1.05874.0837-.93438 1.7253.22219 1.5545.94018-.1385.76773-1.6333-.22219-1.5545z"/><path d="m60.357 46.961c.8175-.7984 2.1838.3416 1.4659 1.2585-.8316 1.0612-2.4317-.3142-1.4659-1.2585zm.6169-.0962c-.9344.0995-.9394 1.4036-.0846 1.5421 1.2378.2015 1.2171-1.6623.0846-1.5421z"/><path d="m38.4409 46.7672c.7479-.0166 1.7146-.1493 1.7486.8697.0298.9153-1.0978 1.1491-1.7486.8299zm.1658.2072v1.3266c.3507.2868 1.1699.1202 1.3465-.3118.4584-1.125-1.2403-1.3564-1.3465-1.0148z"/><path d="m27.1655 46.767c.5845.034 1.4542-.2205 1.4178.6235-.0183.4253-.3068.4501-.3317.5903-.0282.1591.3574.4037.3234.6102-.1435.1484-.4154-.4884-.4975-.5381-.1774-.107-.5314-.0141-.7462-.0423-.0737.0738.1625.6732-.1649.5812v-1.824zm.1658 1.0778c1.402.252 1.509-1.2055.078-.9593z"/><path d="m34.7103 46.767c.9767-.2122 2.0147.3657.9966 1.2014l.412.6218c-.3009.034-.4087-.4552-.5795-.5389-.1874-.092-.4577-.024-.6641-.0415-.0398.0415.0995.5365-.1658.5812v-1.824zm.1658 1.0779c1.4675.213 1.378-1.1367 0-.9958z"/><path d="m37.359 46.7695.7503 1.8207c-.1609.1923-.2968-.4535-.3449-.4834h-1.0098c-.2106.0688-.1692.5182-.4685.4834l.7562-1.6888.3175-.1319zm-.0796.2463c-.2156-.039-.1277.0306-.1716.1177-.0481.0953-.3557.7652-.3242.7934h.9111l-.4162-.9111z"/><path d="m44.9089 47.6799c.1882-.2537.2147.4825.1252.6641-.267.5414-1.9426.2106-1.5628-.9833.2122-.6674 1.0935-.844 1.6009-.3864l-.6956-.1193c-.2985.0132-.7196.339-.781.6359-.1998.97 1.5637 1.4392 1.3125.1882z"/><path d="m58.9195 47.0149c-.2744-.1658-.9783-.2653-1.0628.1368-.1111.5273 1.1482.3043 1.1516.8979.0041.6956-.8888.5771-1.3324.3739-.0638-.3349.3598-.0215.548-.0024.2115.0215.5912-.0208.6177-.2886.0539-.5322-1.1624-.2653-1.1599-.9103.0025-.7901 1.5172-.4568 1.237-.2073z"/><path d="m21.5278 46.7672c.102-.1352.1501.0016.1658.1227.0655.5082-.2014 1.6258.6973 1.5346.1194-.0124.4635-.2064.4635-.2902v-1.368h.1658v1.368c0 .5845-1.4924.6243-1.4924-.1658v-1.2022z"/><path d="m57.3444 46.8507c-.1443.2885-.4203-.0547-.7669.0141-.3051.0605-.4452.3474-.1907.5704.2131.1866.626.0995.8763.3665.5099.5422-.4924 1.0562-1.1209.6234-.0323-.0224-.189-.1484-.0829-.1658.2993.141 1.1168.325 1.1947-.136.0697-.4095-1.1333-.3117-1.159-.8978-.0274-.631.8465-.539 1.2486-.3748z"/><path d="m31.9743 46.8507c-.0937.2861-.3391.0174-.5489.0017-.4518-.0332-.737.3656-.3582.6152.2819.1865 1.3465.2064.8631.8722-.4228.582-1.4127.0223-1.2817-.0796.291.1011 1.2403.3598 1.2278-.1385-.0124-.4983-1.1557-.2918-1.1532-.8987.0025-.5853.8705-.5588 1.2519-.3723z"/><path d="m25.2586 46.7671v1.2851c0 .3217.7246.509.9742.2686.0141-.0141.1865-.3316.1865-.3515v-1.2022h.1658v1.2851c0 .2064-.4709.5364-.7064.5447-.2943.0108-.7859-.2371-.7859-.5447v-1.2851z"/><path d="m30.3159 46.7671-1.0413.1608c-.2396.9228.3473.5895.9592.7097l-.9178.078-.0779.7097h1.1607c.0066.0538-.1103.1658-.1244.1658h-1.2021v-1.824z"/><path d="m21.1962 46.7671c.0182.1459-.1874.0788-.2894.0829-.262.0108-.5273-.0075-.7893 0v.747c.0282.0282.6426-.0191.7893 0 .1211.0158.257.063.1227.1658h-.912l-.0821.7893-.1658-.0837v-1.6997h1.3266z"/><path d="m3.20522 48.2601c-1.37793 1.3199-2.392731-1.5006-.69145-1.5479.16167-.0041.8896.1426.56792.3847-.67156-.6641-1.64159.1974-1.20632.9601.30179.5306.8722.3474 1.33068.2031z"/><path d="m47.7259 47.0988c-1.7519-1.0239-1.9409 1.9906-.0423 1.159l.0423.1658c-.8042.4602-1.8141-.1285-1.5363-1.0802.1824-.626 1.2958-.9477 1.5363-.2455z"/><path d="m34.3786 46.7671v.0821l-.6633.0008v1.7411h-.1658v-1.6167l-.1368-.1111-.5256-.0141-.0009-.0821z"/><path d="m24.8439 46.7671v.0821l-.6633.0008v1.6167l-.1243.1227-.1227-.1227c.0008-.0298.0812-.0572.0812-.0829v-1.4094l-.1376-.1111-.5256-.0141v-.0821h1.4915z"/><path d="m59.6654 46.7671v1.6996l-.1244.1227-.1227-.1227c.0009-.0298.0813-.0572.0813-.0829v-1.4923c0-.0175-.1244-.0946-.0829-.1236h.2487z"/><path d="m55.6033 46.7671h-.1658v1.824h.1658z"/><path d="m40.8455 46.7671h-.1658v1.824h.1658z"/><path d="m15.3924 46.7671h-.1658v1.824h.1658z"/></g></svg>

<svg xmlns="http://www.w3.org/2000/svg" width="65" height="49" viewBox="0 0 65 49" fill="none">
  <path d="M0.717773 26.0401V0.504395H31.4353L31.5596 0.628757V25.9158L31.4353 26.0401H0.717773ZM7.36452 4.71862L6.56363 3.24202L5.83736 4.71116L4.20075 4.98144C4.02913 5.12984 5.31669 5.98711 5.34571 6.20102L5.11274 7.88157L6.64571 7.08233L8.17951 7.79949L7.86778 6.19273C7.90011 6.02691 9.15451 5.02455 9.00859 4.89853L7.36452 4.71862ZM19.7858 3.24037C19.5927 3.19808 19.6532 3.2669 19.6018 3.34649C19.3414 3.74942 19.237 4.2933 18.9534 4.68628L17.3002 4.98144C17.2687 5.11989 17.345 5.14974 17.4254 5.2285C17.7587 5.55185 18.1973 5.84285 18.4974 6.22091L18.2114 7.8824L19.7452 7.08316L21.2782 7.80032L21.046 6.11811L22.1902 4.89936L20.4615 4.71945L19.7842 3.24037H19.7858ZM13.2361 7.96613C13.0968 7.93712 13.0678 8.00261 12.9998 8.10127C12.8713 8.28782 12.4924 9.37723 12.3921 9.4419L10.7497 9.70721L11.8955 10.9268L11.6625 12.6082L13.2104 11.7948L14.7293 12.5253L14.4316 10.9052C14.5129 10.7054 15.6827 9.76275 15.5592 9.6243L13.9831 9.41703L13.2369 7.9653L13.2361 7.96613ZM26.4185 7.96613C26.2245 7.92302 26.2858 7.99432 26.2344 8.07308C26.0529 8.35 25.7967 9.27194 25.5877 9.41371L23.9329 9.70803L25.1566 10.9185L24.9286 12.609L26.3928 11.799L27.9954 12.5253L27.677 10.8455L28.8245 9.62513L27.1647 9.41868L26.4185 7.96696V7.96613ZM6.18889 13.1064C5.99571 13.0642 6.05623 13.133 6.00483 13.2126C5.83818 13.4704 5.49246 14.4496 5.35815 14.5532L3.7033 14.8475L4.84743 16.0663L4.69903 17.7485L6.14826 16.9484L7.68206 17.6656L7.44909 15.9842L8.59488 14.7646L6.93672 14.5565L6.18889 13.1064ZM19.7858 13.1064C19.5927 13.0642 19.6532 13.133 19.6018 13.2126C19.4351 13.4704 19.0894 14.4496 18.9551 14.5532L17.3002 14.8475C17.248 15.0415 17.3508 14.9876 17.4064 15.0365C17.7853 15.3732 18.1476 15.7205 18.4983 16.0862L18.2122 17.7476L19.7452 16.9484L21.279 17.6656L21.046 15.9842L22.1918 14.7646L20.5328 14.5573L19.7858 13.1056V13.1064ZM14.8122 19.9057L13.1557 19.6968L12.3266 18.2476L11.6293 19.7482L10.0052 19.9895C9.83187 20.1362 11.102 21.0408 11.1485 21.2091L10.9171 22.8904L12.4509 22.1509L13.9839 22.8913L13.673 21.2008C13.7053 21.0358 14.9606 20.0318 14.8138 19.9066L14.8122 19.9057ZM28.3262 19.9057L26.6697 19.6968L25.8406 18.2476L25.1434 19.7482L23.5192 19.9895C23.3451 20.1362 24.6136 21.0374 24.6642 21.2099L24.4312 22.8904L25.965 22.1509L27.498 22.8913L27.1854 21.2016C27.2177 21.0374 28.4738 20.0318 28.327 19.9066L28.3262 19.9057Z" fill="white"/>
  <path d="M16.8792 41.47C16.9936 41.6367 15.9855 42.5959 15.8089 42.7476C12.0399 45.967 5.05651 45.4563 2.05938 41.4062C-0.487558 37.9647 -0.0788212 32.7854 3.16206 29.935C6.86225 26.6817 13.8572 26.8633 16.8792 30.9622L13.4443 34.0813C12.2563 32.4206 10.0501 31.6396 8.12329 32.4927C5.18917 33.7919 5.2472 38.9803 8.32227 40.1161C10.3311 40.8582 12.1501 40.0448 13.4435 38.4804L16.8776 41.47H16.8792Z" fill="white"/>
  <path d="M61.1595 34.0822C59.1888 31.0204 54.2441 31.6571 53.8022 35.5563C53.2609 40.3285 58.3597 42.0712 61.1562 38.5153H61.3262L64.7221 41.5862C63.2297 43.5047 61.0177 44.5129 58.6292 44.7773C52.7808 45.4257 47.7682 41.5895 48.2258 35.4518C48.8311 27.3409 59.998 25.0725 64.7155 30.974L61.1604 34.0822H61.1595Z" fill="white"/>
  <path d="M24.0149 32.2581V34.9526L24.1393 35.077H30.8963V39.2224H24.0149V44.4456H18.543V28.0298H31.7668L31.8912 28.1541V32.1337L31.7668 32.2581H24.0149Z" fill="white"/>
  <path d="M47.6438 28.0298V32.341H42.8351V44.4456H37.3632V32.341H32.5545V28.2371C32.5545 28.208 32.4077 28.145 32.5959 28.0298H47.6438Z" fill="white"/>
  <path d="M64.5572 4.56689H60.5776V25.9572H64.5572V4.56689Z" fill="white"/>
  <path d="M50.9602 25.9571H47.0635V8.29761H50.8358L50.9602 8.42197V25.9571Z" fill="white"/>
  <path d="M53.8618 25.9571V11.7798H57.717L57.8414 11.9041V25.8327L57.717 25.9571H53.8618Z" fill="white"/>
  <path d="M44.2448 13.521H40.3481V25.9572H44.2448V13.521Z" fill="white"/>
  <path d="M37.7779 19.4902C37.8194 19.5201 37.695 19.5972 37.695 19.6146V25.9571H33.7983V19.4902H37.7779Z" fill="white"/>
  <path d="M62.1528 0.67086L55.9761 10.2857L49.0143 3.48891L43.1311 11.7026L40.1033 11.8253L35.2134 15.7253C34.7947 15.7353 34.973 15.5355 35.1686 15.3473C36.5772 13.9901 38.5471 12.8252 40.0196 11.4929L42.9836 11.4299L48.8891 2.99229L56.0167 9.78993L61.8734 0.5979L62.1528 0.67086Z" fill="white"/>
  <path d="M8.34521 46.7671C8.50108 46.7323 8.50606 46.8194 8.57984 46.9056C8.68763 47.03 9.26218 48.1459 9.33845 48.0937L9.99675 46.8185L10.2521 46.7671V48.5911H10.0863V47.1817C9.86824 47.1377 9.95695 47.2265 9.91218 47.3011C9.82595 47.4445 9.37411 48.3391 9.29866 48.3407L8.51103 47.1817V48.5911H8.34521V46.7671Z" fill="white"/>
  <path d="M50.3799 46.767C50.5482 46.573 51.2338 47.9468 51.2927 48.0936C51.4403 48.193 51.9444 46.6899 52.2868 46.767V48.591H52.121V47.1816L51.3333 48.3406L50.5457 47.1816V48.591H50.3799V46.767Z" fill="white"/>
  <path d="M52.867 46.7672C52.9649 46.7763 53.0453 46.7216 53.1216 46.8194C53.3438 47.1029 53.6223 47.7447 53.7799 48.0937C53.881 48.17 54.458 47.0101 54.5393 46.9065C54.6114 46.8136 54.6214 46.7348 54.7739 46.768V48.592H54.6081V47.3069C54.6081 47.2729 54.822 47.1618 54.5675 47.1834L53.9498 48.2918L53.7799 48.3433C53.6099 48.0108 53.4167 47.6004 53.2177 47.2903C53.1647 47.2074 53.2269 47.1436 53.032 47.1834V48.5928C52.9781 48.5994 52.8662 48.4825 52.8662 48.4684V46.7688L52.867 46.7672Z" fill="white"/>
  <path d="M5.85792 46.8914C5.85461 46.8682 5.73273 46.7977 5.77502 46.7679C5.85129 46.7737 5.93835 46.7438 6.00965 46.7845C6.08841 46.8301 6.71602 48.1947 6.85199 48.0936C6.88682 47.9021 7.4622 46.8234 7.53018 46.7845C7.59817 46.7455 7.68854 46.7737 7.76481 46.7679C7.80627 46.7969 7.68191 46.874 7.68191 46.8914V48.591L7.51277 48.3042L7.47546 47.1816L6.81054 48.3431C6.64472 48.3813 6.69613 48.2702 6.63809 48.1864C6.45403 47.9203 6.32553 47.6177 6.14562 47.3466C6.08261 47.2512 6.16634 47.1318 5.94083 47.1824C6.03452 47.5505 6.16634 48.3166 5.85792 48.591C5.80569 48.0579 5.9284 47.4079 5.85792 46.8914Z" fill="white"/>
  <path d="M41.4258 46.767C41.5734 46.7454 41.6074 46.762 41.7126 46.8532C41.9954 47.0978 42.3552 47.7445 42.6462 48.0703C42.6951 48.1259 42.6396 48.2287 42.8361 48.1764V46.8914C42.8361 46.8739 42.7117 46.7968 42.7531 46.7678H43.0019V48.4666L42.8361 48.5503L41.5924 47.0986V48.591H41.4266V46.767H41.4258Z" fill="white"/>
  <path d="M17.4237 46.7671L18.1276 47.762C18.1542 47.6218 18.7445 46.5457 18.8738 46.6841C18.645 47.3458 17.9734 47.825 18.1276 48.5902C17.8325 48.6391 18.0033 48.1027 17.9245 47.8407C17.9088 47.7868 17.4163 46.8931 17.3682 46.8632C17.2762 46.8052 16.6378 46.806 16.5524 46.9743V48.591H16.3866V46.85H15.7241V46.7671H17.4237Z" fill="white"/>
  <path d="M48.2523 48.3141C47.3412 47.3822 48.9396 46.0457 49.7182 47.0555C50.4967 48.0653 49.0433 49.1241 48.2523 48.3141ZM48.4165 48.2328C49.1851 48.9342 50.2687 47.7279 49.4736 47.0522C48.6544 46.3566 47.7449 47.6193 48.4165 48.2328Z" fill="white"/>
  <path d="M63.8109 48.1766V46.7671H63.9767V48.5911C63.8117 48.6326 63.8167 48.5223 63.7438 48.451C63.3416 48.0589 63.0705 47.481 62.6502 47.0988V48.5911H62.4844V46.7671C62.6187 46.7381 62.6535 46.8127 62.7356 46.889C63.1095 47.2356 63.3856 47.8557 63.8109 48.1766Z" fill="white"/>
  <path d="M13.0713 46.7671C13.7545 46.7049 14.8173 46.6999 14.8132 47.6376C14.809 48.5753 13.781 48.6557 13.0713 48.591V46.7671ZM13.2371 48.4252C13.6682 48.4327 14.2411 48.499 14.499 48.0712C14.9898 47.2554 13.9393 46.5498 13.2371 46.9743V48.4252Z" fill="white"/>
  <path d="M10.9439 48.3141C9.97964 47.3491 11.6527 46.0839 12.4097 47.0556C13.1376 47.9908 11.7879 49.1582 10.9439 48.3141ZM11.5599 46.8649C10.7059 46.9694 10.6006 48.2387 11.4753 48.407C12.704 48.6441 12.7148 46.7231 11.5599 46.8649Z" fill="white"/>
  <path d="M4.33658 46.714C5.66394 46.6501 5.72778 48.5603 4.40373 48.5952C3.17503 48.6275 3.11119 46.7728 4.33658 46.714ZM4.34487 46.8674C3.28613 46.9511 3.41049 48.5927 4.56706 48.4219C5.50724 48.2834 5.33479 46.7886 4.34487 46.8674Z" fill="white"/>
  <path d="M60.357 46.961C61.1745 46.1626 62.5408 47.3026 61.8229 48.2195C60.9913 49.2807 59.3912 47.9053 60.357 46.961ZM60.9739 46.8648C60.0395 46.9643 60.0345 48.2684 60.8893 48.4069C62.1271 48.6084 62.1064 46.7446 60.9739 46.8648Z" fill="white"/>
  <path d="M38.4409 46.7672C39.1888 46.7506 40.1555 46.6179 40.1895 47.6369C40.2193 48.5522 39.0917 48.786 38.4409 48.4668V46.7672ZM38.6067 46.9744V48.301C38.9574 48.5878 39.7766 48.4212 39.9532 47.9892C40.4116 46.8642 38.7129 46.6328 38.6067 46.9744Z" fill="white"/>
  <path d="M27.1655 46.767C27.75 46.801 28.6197 46.5465 28.5833 47.3905C28.565 47.8158 28.2765 47.8406 28.2516 47.9808C28.2234 48.1399 28.609 48.3845 28.575 48.591C28.4315 48.7394 28.1596 48.1026 28.0775 48.0529C27.9001 47.9459 27.5461 48.0388 27.3313 48.0106C27.2576 48.0844 27.4938 48.6838 27.1664 48.5918V46.7678L27.1655 46.767ZM27.3313 47.8448C28.7333 48.0968 28.8403 46.6393 27.4093 46.8855L27.3313 47.8448Z" fill="white"/>
  <path d="M34.7103 46.767C35.687 46.5548 36.725 47.1327 35.7069 47.9684L36.1189 48.5902C35.818 48.6242 35.7102 48.135 35.5394 48.0513C35.352 47.9593 35.0817 48.0273 34.8753 48.0098C34.8355 48.0513 34.9748 48.5463 34.7095 48.591V46.767H34.7103ZM34.8761 47.8449C36.3436 48.0579 36.2541 46.7082 34.8761 46.8491V47.8449Z" fill="white"/>
  <path d="M37.359 46.7695L38.1093 48.5902C37.9484 48.7825 37.8125 48.1367 37.7644 48.1068H36.7546C36.544 48.1756 36.5854 48.625 36.2861 48.5902L37.0423 46.9014L37.3598 46.7695H37.359ZM37.2794 47.0158C37.0638 46.9768 37.1517 47.0464 37.1078 47.1335C37.0597 47.2288 36.7521 47.8987 36.7836 47.9269H37.6947L37.2785 47.0158H37.2794Z" fill="white"/>
  <path d="M44.9089 47.6799C45.0971 47.4262 45.1236 48.1624 45.0341 48.344C44.7671 48.8854 43.0915 48.5546 43.4713 47.3607C43.6835 46.6933 44.5648 46.5167 45.0722 46.9743L44.3766 46.855C44.0781 46.8682 43.657 47.194 43.5956 47.4909C43.3958 48.4609 45.1593 48.9301 44.9081 47.6791L44.9089 47.6799Z" fill="white"/>
  <path d="M58.9195 47.0149C58.6451 46.8491 57.9412 46.7496 57.8567 47.1517C57.7456 47.679 59.0049 47.456 59.0083 48.0496C59.0124 48.7452 58.1195 48.6267 57.6759 48.4235C57.6121 48.0886 58.0357 48.402 58.2239 48.4211C58.4354 48.4426 58.8151 48.4003 58.8416 48.1325C58.8955 47.6003 57.6792 47.8672 57.6817 47.2222C57.6842 46.4321 59.1989 46.7654 58.9187 47.0149H58.9195Z" fill="white"/>
  <path d="M21.5278 46.7672C21.6298 46.632 21.6779 46.7688 21.6936 46.8899C21.7591 47.3981 21.4922 48.5157 22.3909 48.4245C22.5103 48.4121 22.8544 48.2181 22.8544 48.1343V46.7663H23.0202V48.1343C23.0202 48.7188 21.5278 48.7586 21.5278 47.9685V46.7663V46.7672Z" fill="white"/>
  <path d="M57.3444 46.8507C57.2001 47.1392 56.9241 46.796 56.5775 46.8648C56.2724 46.9253 56.1323 47.2122 56.3868 47.4352C56.5999 47.6218 57.0128 47.5347 57.2631 47.8017C57.773 48.3439 56.7707 48.8579 56.1422 48.4251C56.1099 48.4027 55.9532 48.2767 56.0593 48.2593C56.3586 48.4003 57.1761 48.5843 57.254 48.1233C57.3237 47.7138 56.1207 47.8116 56.095 47.2255C56.0676 46.5945 56.9415 46.6865 57.3436 46.8507H57.3444Z" fill="white"/>
  <path d="M31.9743 46.8507C31.8806 47.1368 31.6352 46.8681 31.4254 46.8524C30.9736 46.8192 30.6884 47.218 31.0672 47.4676C31.3491 47.6541 32.4137 47.674 31.9303 48.3398C31.5075 48.9218 30.5176 48.3621 30.6486 48.2602C30.9396 48.3613 31.8889 48.62 31.8764 48.1217C31.864 47.6234 30.7207 47.8299 30.7232 47.223C30.7257 46.6377 31.5937 46.6642 31.9751 46.8507H31.9743Z" fill="white"/>
  <path d="M25.2586 46.7671V48.0522C25.2586 48.3739 25.9832 48.5612 26.2328 48.3208C26.2469 48.3067 26.4193 47.9892 26.4193 47.9693V46.7671H26.5851V48.0522C26.5851 48.2586 26.1142 48.5886 25.8787 48.5969C25.5844 48.6077 25.0928 48.3598 25.0928 48.0522V46.7671H25.2586Z" fill="white"/>
  <path d="M30.3159 46.7671L29.2746 46.9279C29.035 47.8507 29.6219 47.5174 30.2338 47.6376L29.316 47.7156L29.2381 48.4253H30.3988C30.4054 48.4791 30.2885 48.5911 30.2744 48.5911H29.0723V46.7671H30.3159Z" fill="white"/>
  <path d="M21.1962 46.7671C21.2144 46.913 21.0088 46.8459 20.9068 46.85C20.6448 46.8608 20.3795 46.8425 20.1175 46.85V47.597C20.1457 47.6252 20.7601 47.5779 20.9068 47.597C21.0279 47.6128 21.1638 47.66 21.0295 47.7628H20.1175L20.0354 48.5521L19.8696 48.4684V46.7687H21.1962V46.7671Z" fill="white"/>
  <path d="M3.20522 48.2601C1.82729 49.58 0.812489 46.7595 2.51377 46.7122C2.67544 46.7081 3.40337 46.8548 3.08169 47.0969C2.41013 46.4328 1.4401 47.2943 1.87537 48.057C2.17716 48.5876 2.74757 48.4044 3.20605 48.2601H3.20522Z" fill="white"/>
  <path d="M47.7259 47.0988C45.974 46.0749 45.785 49.0894 47.6836 48.2578L47.7259 48.4236C46.9217 48.8838 45.9118 48.2951 46.1896 47.3434C46.372 46.7174 47.4854 46.3957 47.7259 47.0979V47.0988Z" fill="white"/>
  <path d="M34.3786 46.7671V46.8492L33.7153 46.85V48.5911H33.5495V46.9744L33.4127 46.8633L32.8871 46.8492L32.8862 46.7671H34.3786Z" fill="white"/>
  <path d="M24.8439 46.7671V46.8492L24.1806 46.85V48.4667L24.0563 48.5894L23.9336 48.4667C23.9344 48.4369 24.0148 48.4095 24.0148 48.3838V46.9744L23.8772 46.8633L23.3516 46.8492V46.7671H24.8431H24.8439Z" fill="white"/>
  <path d="M59.6654 46.7671V48.4667L59.541 48.5894L59.4183 48.4667C59.4192 48.4369 59.4996 48.4095 59.4996 48.3838V46.8915C59.4996 46.874 59.3752 46.7969 59.4167 46.7679H59.6654V46.7671Z" fill="white"/>
  <path d="M55.6033 46.7671H55.4375V48.5911H55.6033V46.7671Z" fill="white"/>
  <path d="M40.8455 46.7671H40.6797V48.5911H40.8455V46.7671Z" fill="white"/>
  <path d="M15.3924 46.7671H15.2266V48.5911H15.3924V46.7671Z" fill="white"/>
</svg>
